X:6943
T:The Imitation
R:reel
C:Dougie MacDonald
D:The Cape Breton Times
N:Bookings,Mechanicals etc.
N:..... Dougie MacDonald <dougie@cranfordpub.com>
N:More tunes and information <http://www.cranfordpub.com/dougie>
Q:333
O:England
L:1/8
M:C|
K:Bminor
C|B,2 BA BFFB|cAAc dBcA|FBBc defb|afec B2Bc|
Bbba fddf|ecce dBcA|FBBc defb|afec B/B/B B||
c|Bbba fddf|ecce dBcA|Bbba fddf|ecac B2 Bc|
Bbba fddf|ecce dBcA|FBBc defb|afec B/B/B B|]
